X:26
T: Rory O'More
N: abc version by Robert Bley-Vroman, Contradancers of Hawaii, July 1996
Z: mailto:vroman@hawaii.edu
N: based on version of the Nottingham Music Database
N:   http://www.cs.nott.ac.uk/Department/Staff/ef/database.html [access July 1996]
M: 6/8
L: 1/8
K: A
|:eAA cAA | eAA f3  | edc cBA | GAB Bcd |
  eAA cAA | ece fed | cde efg | aec A3 :|
|: agf f2 c | dcB A2 G | FGA ABc | cfe efg |
   agf f2 c | dcB A2 G | FGA ABc | cfe e3 :|
